X:1
T: Miss Nancy Dick's Reel
C:R. Mackintosh
R:Jig
Q: 180
K:C
M:6/8
L:1/8
G|:c3 e2f|gea gec|cBc edc|BcA dBG|
c3 e2f|gea gec|def edc|dcB c3:|
|:c3 GEG|GEG GEG|c3 GEG|Adc BAG|
c3 GEG|GEG GEG|ABc def|1ecc c3:|2ecc c2||
